dist/img/svg/note_snowflake.svg

<svg width="20" height="20" viewBox="0 0 20 20" fill="none" xmlns="http://www.w3.org/2000/svg">
<path d="M9.13978 8.96936C8.96057 8.52368 8.76344 7.83658 8.54839 6.90808C8.33333 5.97957 8.1362 4.95822 7.95699 3.84401C7.81362 2.69266 7.74194 1.63417 7.74194 0.668522C7.74194 0.445682 7.97491 0.278551 8.44086 0.167129C8.90681 0.0557103 9.39068 0 9.89247 0C10.3943 0 10.8781 0.0557103 11.3441 0.167129C11.81 0.278551 12.043 0.445682 12.043 0.668522C12.043 1.63417 11.9713 2.67409 11.828 3.7883C11.6846 4.90251 11.5054 5.94243 11.2903 6.90808C11.1111 7.83658 10.9319 8.52368 10.7527 8.96936H9.13978ZM11.7204 10.7521L11.1828 9.13649C11.4695 8.91365 11.9534 8.59796 12.6344 8.18942C13.3154 7.74373 14.0502 7.29805 14.8387 6.85237C15.6631 6.40668 16.3979 6.03528 17.043 5.73816C17.724 5.44104 18.19 5.29248 18.4409 5.29248C18.7634 5.29248 19.0323 5.55246 19.2473 6.07242C19.4982 6.55524 19.6774 7.11235 19.7849 7.74373C19.9283 8.33797 20 8.78366 20 9.08078C20 9.34076 19.6237 9.58217 18.871 9.80501C18.1541 10.0279 17.3298 10.2136 16.3979 10.3621C15.466 10.5107 14.5341 10.6221 13.6022 10.6964C12.7061 10.7335 12.0789 10.7521 11.7204 10.7521ZM8.27957 10.9192C8.02867 10.9192 7.65233 10.9006 7.15054 10.8635C6.64875 10.8264 6.09319 10.7892 5.48387 10.7521C4.6595 10.6778 3.8172 10.5664 2.95699 10.4178C2.13262 10.2693 1.43369 10.1021 0.860215 9.91643C0.286738 9.69359 0 9.47075 0 9.24791C0 8.95079 0.0537634 8.50511 0.16129 7.91086C0.30466 7.27948 0.501792 6.72238 0.752688 6.23955C1.00358 5.71959 1.2724 5.45961 1.55914 5.45961C1.81004 5.45961 2.25806 5.60817 2.90323 5.90529C3.58423 6.20241 4.319 6.57381 5.10753 7.0195C5.9319 7.46518 6.68459 7.91086 7.36559 8.35654C8.0466 8.76509 8.53047 9.08078 8.8172 9.30362L8.27957 10.9192ZM14.1935 19.8886C14.086 19.8886 13.9964 19.8514 13.9247 19.7772C13.3871 19.0715 12.8495 18.2173 12.3118 17.2145C11.81 16.1746 11.362 15.1903 10.9677 14.2618C10.6093 13.3333 10.3763 12.6648 10.2688 12.2563L11.6129 11.2535C12.0072 11.4763 12.5448 11.9034 13.2258 12.5348C13.9427 13.1662 14.6774 13.8904 15.4301 14.7075C16.2186 15.5246 16.8817 16.3231 17.4194 17.1031C17.4194 17.1402 17.4194 17.1773 17.4194 17.2145C17.4552 17.2145 17.4731 17.2331 17.4731 17.2702C17.4731 17.5302 17.2581 17.883 16.828 18.3287C16.3979 18.7372 15.914 19.1086 15.3763 19.4429C14.8746 19.74 14.4803 19.8886 14.1935 19.8886ZM5.96774 20C5.64516 20 5.21505 19.8514 4.67742 19.5543C4.17563 19.2201 3.70968 18.8487 3.27957 18.4401C2.8853 18.0316 2.68817 17.6973 2.68817 17.4373C2.68817 17.363 2.70609 17.3073 2.74194 17.2702C3.35125 16.4902 4.01434 15.6917 4.73118 14.8747C5.48387 14.0576 6.20072 13.3333 6.88172 12.7019C7.56272 12.0334 8.10036 11.5692 8.49462 11.3092L9.83871 12.3677C9.73118 12.8134 9.49821 13.4819 9.13978 14.3733C8.78136 15.2646 8.35126 16.2117 7.84946 17.2145C7.34767 18.1801 6.81004 19.0715 6.23656 19.8886C6.16488 19.9629 6.07527 20 5.96774 20Z" fill="currentColor"/>
</svg>

<svg width="20" height="20" viewBox="0 0 20 20" fill="none" xmlns="http://www.w3.org/2000/svg"><path d="M9.14 8.97c-.18-.446-.377-1.133-.592-2.062a46.045 46.045 0 01-.591-3.064A25.846 25.846 0 017.742.669c0-.223.233-.39.699-.502A6.22 6.22 0 019.892 0c.502 0 .986.056 1.452.167.466.112.699.279.699.502 0 .965-.072 2.005-.215 3.12a34.822 34.822 0 01-.538 3.12c-.179.928-.358 1.615-.537 2.06H9.14zm2.58 1.782l-.537-1.616c.287-.222.77-.538 1.451-.947a39.716 39.716 0 012.205-1.337 39.419 39.419 0 012.204-1.114c.681-.297 1.147-.446 1.398-.446.322 0 .591.26.806.78.251.483.43 1.04.538 1.672.143.594.215 1.04.215 1.337 0 .26-.376.501-1.129.724-.717.223-1.541.409-2.473.557-.932.149-1.864.26-2.796.334-.896.037-1.523.056-1.882.056zm-3.44.167c-.251 0-.628-.018-1.13-.056-.501-.037-1.057-.074-1.666-.11a31.413 31.413 0 01-2.527-.335A16.303 16.303 0 01.86 9.916C.287 9.694 0 9.471 0 9.248c0-.297.054-.743.161-1.337.144-.632.34-1.189.592-1.671.25-.52.52-.78.806-.78.251 0 .7.148 1.344.445A24.14 24.14 0 015.108 7.02a31.4 31.4 0 012.258 1.338c.68.408 1.164.724 1.451.947L8.28 10.92zm5.914 8.97a.358.358 0 01-.27-.112c-.537-.706-1.074-1.56-1.612-2.563a67.81 67.81 0 01-1.344-2.952c-.359-.929-.592-1.597-.7-2.006l1.345-1.002c.394.222.932.65 1.613 1.28a29.786 29.786 0 012.204 2.173 19.09 19.09 0 011.99 2.396v.111c.035 0 .053.02.053.056 0 .26-.215.613-.645 1.059-.43.408-.914.78-1.452 1.114-.501.297-.896.446-1.182.446zM5.967 20c-.323 0-.753-.149-1.29-.446A10.375 10.375 0 013.28 18.44c-.395-.408-.592-.743-.592-1.003 0-.074.018-.13.054-.167.61-.78 1.272-1.578 1.99-2.395a39.035 39.035 0 012.15-2.173c.68-.669 1.218-1.133 1.613-1.393l1.344 1.059c-.108.445-.34 1.114-.7 2.005a38.396 38.396 0 01-1.29 2.842 23.556 23.556 0 01-1.612 2.674.358.358 0 01-.27.111z" fill="currentColor"/></svg>
